public/images/icon_html5.svg

<svg fill="none" height="24" viewBox="0 0 24 24" width="24" xmlns="http://www.w3.org/2000/svg"><path d="m17.6 5.59999h-10.39995v4.80001h9.59995v4.8l-4.8 1.6-4.79995-1.6v-2.4m-6.400001-12.000012h22.399951l-1.6 19.200012-9.6 3.2-9.59995-3.2z" stroke="#ddd"/></svg>

<svg width="24" height="24" viewBox="0 0 24 24" fill="none" xmlns="http://www.w3.org/2000/svg">
<path d="M17.6 5.59999H7.20005V10.4H16.8V15.2L12 16.8L7.20005 15.2V12.8M0.800049 0.799988H23.2L21.6 20L12 23.2L2.40005 20L0.800049 0.799988Z" stroke="#DDDDDD"/>
</svg>
